X:1
T:The White Horse Cavalry
T:The White Horse Cavalry
T:H. R. Jeffrey
T:Daniel Sidney Warner, 1885
T:Public Domain Courtesy of the Cyber Hymnal™
T:Public Domain Courtesy of the Cyber Hymnal™
C:H. R. Jeffrey
Z:Public Domain
Z:Courtesy of the Cyber Hymnal™
%%score ( 1 2 ) ( 3 4 )
L:1/8
Q:1/4=97
M:4/4
K:Eb
V:1 treble 
V:2 treble 
V:3 bass 
V:4 bass 
V:1
 B, | [B,E]2 [B,E][EG] [GB]2 [EG][GB] | [Ac]2 [Ae][Ae] [GB]3 [EG] | %3
w: 1.~Lo,|Hea- ven now o- pens to|rap- tur- ous view; The|
w: 2.~This|cam- paign of fire shall sweep|o- ver the land, En-|
w: 3.~Speed|on- ward, great ar- my, to|judge and make war, Sal-|
w: 4.~All|ho- nor to Je- sus, whose|eyes are a- flame, Who|
 [B,E]2 [B,E][EG] [GB]2 [EG][GB] | (cB)[EG]E [DF]3 ([DG]/[DG]/) | [B,E]2 [B,E][EG] [GB]2 [EG][GB] | %6
w: ar- mies that fol- low the|Faith- * ful and True, Ar- *|rayed in fine lin- en and|
w: list- ing the pure that are|a- * ble to stand; In *|col- umns of glo- ry they|
w: va- tion in Je- sus go|trum- * pet a- far; There~are *|bat- tles to fight and fair|
w: won- drous- ly helps us each|bat- * tle to gain; He’s *|clothed in a ves- ture that’s|
 [Ac]2 [Ae][Ae] [GB]3 [GB] x8 | [Ac]2 [Ac]>[Ac] ([Ac][GB])[EG][EB] | (BA) [DF]>[DG] E3 || %9
w: ar- mor of light, With|swords of de- struc- * tion the|na- * tions to smite.|
w: fol- low their king, Like|thun- der their songs * of sweet|mel- * o- dy ring.|
w: tro- phies to win, And|per- ish- ing souls * to be|res- * cued from sin.|
w: dipped in the blood He|gra- cious- ly shed * to re-|deem * us to God.|
"^Refrain" [GB] x7 | [Ge]2 [Ge]>[Ge] [Ge]3 [Bd] | [Ac]2 [Ae]>[Ac] [GB]3 [GB] | %12
w: |||
w: |||
w: |||
w: |||
 [Ac]2 [Ac]>[Ac] [Ac]3 [Ac] | ([Ac][GB]) [GB]>[EG] [GB]3 [GB] | [Ge][Ge] [Ge]2 [Ge]2 [Ge][Bd] | %15
w: |||
w: |||
w: |||
w: |||
 [Ac][Ad] [Ae]2 [GB]3 [GB] | [Ac]2 [Ac]>[Ac] [Ac] [GB]2 [EG] | [EB][DA] [DF]2 E3 |] %18
w: |||
w: |||
w: |||
w: |||
V:2
 B, | x8 | x8 | x8 | E2 E x5 | x8 | x16 | x8 | D2 x E3 x || x8 | x8 | x8 | x8 | x8 | x8 | x8 | x8 | %17
 x4 E3 |] %18
V:3
 [E,G,] | [E,G,]2 [E,G,][E,B,] [E,E]2 [E,B,][E,E] | [A,E]2 [A,C][A,C] [E,E]3 [E,B,] | %3
w: |||
 [E,G,]2 [E,G,][E,B,] [E,E]2 [E,B,][G,E] | E2 [E,B,][C,G,] [B,,B,]3 ([B,,B,]/[B,,B,]/) | %5
w: |All * * * * *|
 [E,G,]2 [E,G,][E,B,] [E,E]2 [E,B,][E,E] | %6
w: |
 [A,E]2 [A,C][A,C] [E,E]3 [E,E] [A,E]2 [A,E]>[A,E] [E,E]2 [E,B,][G,,B,] | %7
w: |
 [B,,B,]2 [B,,B,]>[B,,A,] [E,G,]3 x | [E,B,] x6 || [E,B,]2 [E,B,]>[E,B,] [E,B,]3 [G,E] | %10
w: |glo-|ry to God! We’ll fol-|
 [A,E]2 [A,C]>[A,E] [E,E]3 [E,E] | [A,E]2 [A,E]>[A,E] [A,E]3 [A,E] | %12
w: low the Lamb; All glo-|ry to God! We’ll fight|
 [E,E]2 [E,E]>[E,B,] [E,E]3 [E,E] | [E,B,][E,B,] [E,B,]2 [E,B,]2 [E,B,][G,E] | %14
w: in the van; In un-|i- form white on our ho-|
 [A,E][A,C] [A,C]2 [E,E]3 [E,E] | [A,E]2 [A,E]>[A,E] [E,E] [E,E]2 [E,B,] | %16
w: li- ness steeds, We’ll rush|to the bat- tle wher- ev-|
 [B,,G,][B,,F,] [B,,A,]2 [E,G,]3 x | x7 |] %18
w: er He leads. *||
V:4
 x | x8 | x8 | x8 | (A,G,) x6 | x8 | x16 | x8 | x7 || x8 | x8 | x8 | x8 | x8 | x8 | x8 | x8 | x7 |] %18

